!!!PDT:	1923
!!!LANG: Non-Tone
!!!LING_GROUP: Siouan
!!!REG: Dakotas
!!!COM: Anon.
!!!OTL: Song of the Goose Women Society
!!!ODT: <1918//
!!!MPN: Wopite [Scattered Corn, Mrs. Holding Eagle]
!!!MLC: Fort Berthold Reservation, North Dakota, United States of America
!! Song was recorded during either the summer of 1912, 1915, or 1918.
!!!AGN: monody
!!!SOCIAL_FUNCTION: Mandan Goose Women Society
!!!AMT: irregular
!!!RWG: Transcribed pitches, durations, and meters are only approximate.
!! Drum Tempo: MM80
**kern
*ICvox
*Ifemale
*clefG2
*k[b-e-]
*M2/4
*MM80
=1-
4.a
8g
=2
4f
8f
8r
=3
4a
4a
=4
2a
*M3/4
=5
16cc
8.g
4g
4f
=6
16f^
8.d
4B-
4B-
*M2/4
=7
16f
8.d
[4d
=8
4d]
4c
*M3/4
=9
16f
8.d
4B-
4B-
*M2/4
=10
2B-
=11
2B-
=12
2B-
*M3/4
=13
[4e-
8e-]
8c
=14
16f
8.e-
4c
4c
*M2/4
=15
2B-
=16
2B-
=17
2B-
==
*-
!!!CNT: Mandan
!!!TXO: Mandan
!!!OCY: United States
!!!OCL: Frances Densmore
!!!YOR: Frances Densmore, "Mandan and Hidatsa Music",
!!!YOR: Bulletin 80, page 43, No. 2
!!!PPR: Smithsonian Institution, Bureau of American Ethnology
!!!PPR: Government Printing Office
!!!PDT: 1923
!!!PPP: Washington, DC, United States of America
!!!YEC: Electronic Copyright 2000 David Huron
!!!YER: August 2000
!!!YEN: United States of America
!!!ENC: David Huron
!!!RDT: August 16, 2000
!!!EEV: Release 1.0
!!!AIN: tom, vox
